X:1
T:Title
%%score { ( 1 3 ) | ( 2 4 ) }
L:1/8
M:3/4
K:F
V:1 treble nm="Grand Piano"
V:3 treble 
V:2 bass 
V:4 bass 
V:1
 z2 z2[Q:1/4=118] CC | C2 F2 G2 | A4 FF | [DG]2 [DF]2 D2 | C4 C2 | C2 F2 A2 | c4 A2 | [FA]6 | %8
 [EG]4 CC | C2 F2 G2 | A4 F2 | [DG]2 [DF]2 D2 | C4 C2 | C2 F2 A2 | c4 A2 | [EG]6 |[M:2/4] [CF]4 | %17
[M:1/4] [Fc]2 |[M:3/4] c2- [Gc-]2 [Fc]2 | [B,EG]4 [Ec]2 | c6 | A4 A2 | G2 ^F2 G2 | c4 e2 | d6 | %25
 [Ec]4 [Ec]2 | c2 =B2 c2 | A4 z _E | G2 G2 A2 | B4 [_Ad]2 | [Ac]2 [FA]2 [Ac]2 | [Af]4 [CFA]2 | %32
 E2 z2 z2 |[M:2/4] F4 |] %34
V:2
 z2 z2 [F,A,][F,A,] | [F,A,]2 [F,A,C]2 [F,B,C]2 | [F,CF]4 [F,A,C][F,A,_E] | %3
 [B,,B,]2 [B,,B,]2 [B,,F,B,]2 | [F,A,]4 [F,A,]2 | [F,A,]2 [F,A,C]2 [F,CF]2 | [F,A,F]4 [F,CF]2 | %7
 [C,C]6 | [C,C]4 [C,B,][C,B,] | [F,A,]2 [F,A,C]2 [F,B,C]2 | [F,CF]4 [F,A,C]2 | %11
 [B,,B,]2 [B,,B,]2 [B,,F,B,]2 | [F,A,]4 [F,A,]2 | [F,A,]2 [F,A,C]2 [F,CF]2 | [F,A,F]4 [F,CF]2 | %15
 [C,B,]6 |[M:2/4] [F,A,]4 |[M:1/4] [F,A,]2 |[M:3/4] G,2 B,2 A,2 | C,4 [C,B,]2 | [A,F]2 C2 B,2 | %21
 [F,CF]4 [F,CF]2 | [G,CE]2 [G,C_E]2 [G,C=E]2 | [G,CE]4 [G,CG]2 | [G,F]6 | [C,C]4 [C,B,]2 | %26
 [F,A,F]2 [F,_A,F]2 [F,=A,F]2 | [F,CF]4 .[F,A,C]2 | [B,D]2 [B,D]2 [A,D^F]2 | %29
 [G,DG]4[K:bass] [F,=B,]2 | [F,C]2 [F,C]2 [F,C]2 | [F,C]4 F,2 | C,2 D,2 E,2 |[M:2/4] [F,A,C]4 |] %34
V:3
 x6 | x6 | x6 | x6 | x6 | x6 | x6 | x6 | x6 | x6 | x6 | x6 | x6 | x6 | x6 | x6 |[M:2/4] x4 | %17
[M:1/4] x2 |[M:3/4] E2 z2 z2 | x6 | z2 A2 G2 | x6 | x6 | x6 | z2 A,2 =B,2 | x6 | x6 | z2 z2 F2 | %28
 x6 | x6 | x6 | x6 | [B,G]2- [B,-DG-]2 [B,CG]2 |[M:2/4] x4 |] %34
V:4
 x6 | x6 | x6 | x6 | x6 | x6 | x6 | x6 | x6 | x6 | x6 | x6 | x6 | x6 | x6 | x6 |[M:2/4] x4 | %17
[M:1/4] x2 |[M:3/4] C,6 | x6 | F,6 | x6 | x6 | x6 | =B,2 z2 z2 | x6 | x6 | x6 | x6 | %29
 x4[K:bass] x2 | x6 | x6 | x6 |[M:2/4] x4 |] %34

